svg/battery_charging_40.svg

<svg xmlns="http://www.w3.org/2000/svg" viewBox="0 0 24 24"><path d="M13 4h-2V2H5v2H3c-.6 0-1 .4-1 1v16c0 .6.4 1 1 1h10c.6 0 1-.4 1-1V5c0-.6-.4-1-1-1m-1 10.5H4V6h8zM23 11h-3V4l-5 10h3v8"/></svg>

<?xml version="1.0" encoding="UTF-8"?><!DOCTYPE svg PUBLIC "-//W3C//DTD SVG 1.1//EN" "http://www.w3.org/Graphics/SVG/1.1/DTD/svg11.dtd"><svg xmlns="http://www.w3.org/2000/svg" xmlns:xlink="http://www.w3.org/1999/xlink" version="1.1" id="mdi-battery-charging-40" width="24" height="24" viewBox="0 0 24 24"><path d="M13 4H11V2H5V4H3C2.4 4 2 4.4 2 5V21C2 21.6 2.4 22 3 22H13C13.6 22 14 21.6 14 21V5C14 4.4 13.6 4 13 4M12 14.5H4V6H12V14.5M23 11H20V4L15 14H18V22" /></svg>
